X:21117 
T:MAID OF FEAKLE (reel), The
B:DMI.0775
Z:Nordberg/Black
R:reel 
%Q:1/4=180 
M:C
L:1/8
K:G
Bc|d2BG AGEG|DGBG c2Bc|d2BG AGEG|DGBG A2GB|
d2BG AGEG|DGBG c2BA|GABd efge|dBGB A2G2||
BcdB cBcd|BcdB AEED|BcdB cBce|dBGB A2G2|
BcdB cBcd|BcdB AEED|Bddf edBd|cgfa gfge||\
"final Hg4z4|]

%%%

